svgs/zarchiver.svg

<svg width="192" height="192" viewBox="0 0 192 192" fill="none" xmlns="http://www.w3.org/2000/svg"><path d="m22 162-5.553-2.272A6 6 0 0 0 22 168v-6Zm148 0v6a6.002 6.002 0 0 0 5.553-8.272L170 162ZM22 30v-6a6 6 0 0 0-5.553 8.272L22 30Zm81 0 5.553 2.272A6 6 0 0 0 103 24v6Zm39 132-5.553 2.272A6 6 0 0 0 142 168v-6Zm-27 0v6a6.002 6.002 0 0 0 5.553-8.272L115 162ZM95.5 48.333l5.553 2.272-5.553-2.272Zm27.5-1.222 5.553-2.272a6 6 0 0 0-11.106 0L123 47.111ZM59.636 136l-5.553-2.272A6 6 0 0 0 59.636 142v-6ZM109 81.333l-5.553-2.272a5.997 5.997 0 0 0 0 4.544L109 81.333ZM49 96l5.553 2.272L49 96ZM32.636 56l-5.553 2.272A6 6 0 0 0 32.636 62v-6Zm32.728 0 5.553 2.272A6 6 0 0 0 65.364 50v6Zm39 80 5.553-2.272a6 6 0 0 0-5.553-3.728v6Zm-3.311-85.395 7.5-18.333-11.106-4.544-7.5 18.334 11.106 4.543Zm74.5 109.123-47-114.889-11.106 4.544 47 114.889 11.106-4.544ZM65.19 138.272l35.863-87.667-11.106-4.543-35.864 87.666 11.107 4.544Zm49.363-54.667 14-34.222-11.106-4.544-14 34.222 11.106 4.544Zm33 76.123-33-80.667-11.106 4.544 33 80.667 11.106-4.544Zm-120 4.544 27-66-11.106-4.544-27 66 11.106 4.544ZM22 36h81V24H22v12Zm0 132h27v-12H22v12Zm27 0h66v-12H49v12ZM38.19 53.728l-10.637-26-11.106 4.544 10.636 26 11.107-4.544Zm16.363 44.544 16.364-40-11.107-4.544-16.363 40 11.106 4.544ZM32.636 62h32.728V50H32.636v12Zm87.917 97.728-10.636-26-11.107 4.544 10.637 26 11.106-4.544ZM104.364 130H59.636v12h44.728v-12ZM142 168h28v-12h-28v12Z" fill="#000"/></svg>

<?xml version="1.0" encoding="UTF-8" standalone="no"?><svg xmlns:android="http://schemas.android.com/apk/res/android" height="192" width="192" xmlns="http://www.w3.org/2000/svg">
  <path d="M22,162L16.447,159.728C15.69,161.579 15.904,163.684 17.018,165.344C18.133,167.004 20.001,168 22,168V162ZM170,162V168C171.999,168 173.867,167.004 174.982,165.344C176.096,163.684 176.31,161.579 175.553,159.728L170,162ZM22,30V24C20.001,24 18.133,24.996 17.018,26.656C15.904,28.316 15.69,30.421 16.447,32.272L22,30ZM103,30L108.553,32.272C109.31,30.421 109.096,28.316 107.982,26.656C106.867,24.996 104.999,24 103,24V30ZM142,162L136.447,164.272C137.369,166.527 139.564,168 142,168V162ZM115,162V168C116.999,168 118.867,167.004 119.982,165.344C121.096,163.684 121.31,161.579 120.553,159.728L115,162ZM95.5,48.333L101.053,50.605L95.5,48.333ZM123,47.111L128.553,44.839C127.631,42.584 125.436,41.111 123,41.111C120.564,41.111 118.369,42.584 117.447,44.839L123,47.111ZM59.636,136L54.083,133.728C53.326,135.579 53.541,137.684 54.655,139.344C55.769,141.004 57.637,142 59.636,142V136ZM109,81.333L103.447,79.062C102.851,80.518 102.851,82.149 103.447,83.605L109,81.333ZM49,96L54.553,98.272L49,96ZM32.636,56L27.083,58.272C28.006,60.527 30.2,62 32.636,62V56ZM65.364,56L70.917,58.272C71.674,56.421 71.46,54.315 70.345,52.656C69.231,50.996 67.363,50 65.364,50V56ZM104.364,136L109.917,133.728C108.994,131.473 106.8,130 104.364,130V136ZM101.053,50.605L108.553,32.272L97.447,27.728L89.947,46.062L101.053,50.605ZM175.553,159.728L128.553,44.839L117.447,49.383L164.447,164.272L175.553,159.728ZM65.19,138.272L101.053,50.605L89.947,46.062L54.083,133.728L65.19,138.272ZM114.553,83.605L128.553,49.383L117.447,44.839L103.447,79.062L114.553,83.605ZM147.553,159.728L114.553,79.062L103.447,83.605L136.447,164.272L147.553,159.728ZM27.553,164.272L54.553,98.272L43.447,93.728L16.447,159.728L27.553,164.272ZM22,36H103V24H22V36ZM22,168H49V156H22V168ZM49,168H115V156H49V168ZM38.19,53.728L27.553,27.728L16.447,32.272L27.083,58.272L38.19,53.728ZM54.553,98.272L70.917,58.272L59.81,53.728L43.447,93.728L54.553,98.272ZM32.636,62H65.364V50H32.636V62ZM120.553,159.728L109.917,133.728L98.81,138.272L109.447,164.272L120.553,159.728ZM104.364,130H59.636V142H104.364V130ZM142,168H170V156H142V168Z" fill="#000000"/>
</svg>
